X: 18531
T: I Have A Bonnet Trimmed With Blue
R: polka
M: 2/4
K: Gmajor
|:FA ce|dB- Bc|de/d/ cA|GB- BA/G/|
F>A c/d/e|dB- Bc|de/d/ cA|AG G2:|
|:ce g2|dB B2|d2 c/B/A|GB- BG|
c>e g/f/e|dB Bc|de/d/ cA|G2- G2:|

